**harmony	**harte	**kern	**silbe	**kern	**silbe	**rhyme	**timestamp	**phrase
*M4/4	*M4/4	*ICvox	*	*ICvox	*	*	*	*
*	*	*VRlead	*	*VRharmonize	*	*	*	*
*	*	*Hstimme	*	*Nstimme	*	*	*	*
*A:	*A:	*A:	*	*A:	*	*	*	*
*	*	*M4/4	*	*M4/4	*	*	*	*
*	*	*clefF4	*	*clefG2	*	*	*	*
1r;	1r	r;	.	r;	.	.	0	.
1r;	1r	r;	.	r;	.	.	0.041	.
=1	=1	=1	=1	=1	=1	=1	=1	=1
*>Label>Intro	*>Label>Intro	*>Label>Intro	*>Label>Intro	*>Label>Intro	*>Label>Intro	*>Label>Intro	*>Label>Intro	*>Label>Intro
2DMM	D:maj7	1r	.	1r	.	.	0.255	newline
4C#mm	C#:min7	.	.	.	.	.	1.294	.
4Bmm	B:min7/b7	.	.	.	.	.	1.813	.
=2	=2	=2	=2	=2	=2	=2	=2	=2
2C#mm	C#:min7	1r	.	1r	.	.	2.333	.
2F#mm	F#:min7	.	.	.	.	.	3.371	.
=3	=3	=3	=3	=3	=3	=3	=3	=3
2DMM	D:maj7	1r	.	1r	.	.	4.41	.
4C#mm	C#:min7	.	.	.	.	.	5.449	.
4Bmm	B:min7/b7	.	.	.	.	.	5.968	.
=4	=4	=4	=4	=4	=4	=4	=4	=4
2C#mm	C#:min7	1r	.	1r	.	.	6.487	.
2F#mm	F#:min7	.	.	.	.	.	7.526	.
=5	=5	=5	=5	=5	=5	=5	=5	=5
2DMM	D:maj7	1r	.	1r	.	.	8.565	newline
4C#mm	C#:min7	.	.	.	.	.	9.53	.
4Bmm	B:min7/b7	.	.	.	.	.	10.013	.
=6	=6	=6	=6	=6	=6	=6	=6	=6
2C#Mm	C#:7	1r	.	1r	.	.	10.495	.
2F#mm	F#:min7	.	.	.	.	.	11.46	.
=7	=7	=7	=7	=7	=7	=7	=7	=7
1AMm	A:11	1r	.	1r	.	.	12.426	.
=8	=8	=8	=8	=8	=8	=8	=8	=8
1AMm	A:11	1r	.	1r	.	.	14.356	.
=9	=9	=9	=9	=9	=9	=9	=9	=9
1AMm	A:11	1r	.	1r	.	.	16.287	newline
=10	=10	=10	=10	=10	=10	=10	=10	=10
1AMm	A:11	2r	.	1r	.	.	18.234	.
.	.	8r	.	.	.	.	.	.
.	.	8F#	Do	.	.	.	.	.
.	.	8A	you	.	.	.	.	.
.	.	8B	re-	.	.	.	.	.
=11	=11	=11	=11	=11	=11	=11	=11	=11
*>Label>Verse	*>Label>Verse	*>Label>Verse	*>Label>Verse	*>Label>Verse	*>Label>Verse	*>Label>Verse	*>Label>Verse	*>Label>Verse
*>Letter>A	*>Letter>A	*>Letter>A	*>Letter>A	*>Letter>A	*>Letter>A	*>Letter>A	*>Letter>A	*>Letter>A
2DMM	D:maj7	8c#	-mem-	1r	.	(A	20.181	newline
.	.	8c#	-ber	.	.	a)	.	.
.	.	2r	.	.	.	.	.	.
4C#mm	C#:min7	.	.	.	.	.	21.148	.
4Bmm	B:min7/b7	4r	.	.	.	.	21.631	.
=12	=12	=12	=12	=12	=12	=12	=12	=12
2C#mm	C#:min7	8c#	twen-	1r	.	.	22.115	.
.	.	8e	-ty	.	.	.	.	.
.	.	8f#	first	.	.	.	.	.
.	.	8B	night	.	.	B	.	.
2F#mm	F#:min7	4A	_	.	.	.	23.081	.
.	.	8c#	Sep-	.	.	.	.	.
.	.	8c#	-tem-	.	.	(A	.	.
=13	=13	=13	=13	=13	=13	=13	=13	=13
2DMM	D:maj7	4c#	-ber?.	1r	.	a)	24.048	.
.	.	2r	.	.	.	.	.	.
4C#mm	C#:min7	.	.	.	.	.	25.014	.
4Bmm	B:min7/b7	8A	Love	.	.	.	25.498	.
.	.	8B	was	.	.	.	.	.
=14	=14	=14	=14	=14	=14	=14	=14	=14
2C#mm	C#:min7	8c#	chang-	1r	.	.	25.981	.
.	.	8e	-ing	.	.	.	.	.
.	.	8f#	the	.	.	.	.	.
.	.	8B	minds	.	.	B	.	.
2F#mm	F#:min7	8A	_	.	.	.	26.947	.
.	.	8A	of	.	.	.	.	.
.	.	8c#	pre-	.	.	.	.	.
.	.	8c#	-ten-	.	.	(A	.	.
=15	=15	=15	=15	=15	=15	=15	=15	=15
2DMM	D:maj7	4c#	-ders|	1r	.	a)	27.914	newline
.	.	2r	.	.	.	.	.	.
4C#mm	C#:min7	.	.	.	.	.	28.877	.
4Bmm	B:min7/b7	8A	while	.	.	.	29.359	.
.	.	8B	_	.	.	.	.	.
=16	=16	=16	=16	=16	=16	=16	=16	=16
2C#Mm	C#:7	8c#	chas-	1r	.	.	29.84	.
.	.	8e	-ing	.	.	.	.	.
.	.	8f#	the	.	.	.	.	.
.	.	16B	clouds	.	.	.	.	.
.	.	16c#	_	.	.	.	.	.
2F#mm	F#:min7	4B	_	.	.	.	30.804	.
.	.	8A	a-	.	.	.	.	.
.	.	8B	-way.	.	.	.	.	.
=17	=17	=17	=17	=17	=17	=17	=17	=17
1AMm	A:11	[1A	_	1r	.	.	31.767	.
=18	=18	=18	=18	=18	=18	=18	=18	=18
1AMm	A:11	2A]	_	1r	.	.	33.693	.
.	.	8r	.	.	.	.	.	.
.	.	8c#	Our	.	.	.	.	.
.	.	8B	hearts	.	.	.	.	.
.	.	8A	were	.	.	.	.	.
=19	=19	=19	=19	=19	=19	=19	=19	=19
2DMM	D:maj7	8c#	ring-	1r	.	(C	35.619	newline
.	.	8c#	-ing	.	.	c)	.	.
.	.	4r	.	.	.	.	.	.
4C#mm	C#:min7	8r	.	.	.	.	36.59	.
.	.	8A	in	.	.	.	.	.
4Bmm	B:min7/b7	8B	the	.	.	.	37.076	.
.	.	[8c#	key	.	.	.	.	.
=20	=20	=20	=20	=20	=20	=20	=20	=20
2C#mm	C#:min7	8c#]	_	1r	.	.	37.561	.
.	.	8e	that	.	.	.	.	.
.	.	8f#	our	.	.	.	.	.
.	.	8B	souls	.	.	.	.	.
2F#mm	F#:min7	4A	_	.	.	.	38.532	.
.	.	8A	were	.	.	(C	.	.
.	.	16c#	sing-	.	.	c)	.	.
.	.	16d	_	.	.	.	.	.
=21	=21	=21	=21	=21	=21	=21	=21	=21
2DMM	D:maj7	4c#	-ing|	1r	.	.	39.503	.
.	.	2r	.	.	.	.	.	.
4C#mm	C#:min7	.	.	.	.	.	40.474	.
4Bmm	B:min7/b7	8A	as	.	.	.	40.959	.
.	.	8B	we	.	.	.	.	.
=22	=22	=22	=22	=22	=22	=22	=22	=22
2C#mm	C#:min7	8c#	danced	1r	.	.	41.445	.
.	.	8e	in	.	.	.	.	.
.	.	8f#	the	.	.	.	.	.
.	.	8B	night.	.	.	B	.	.
2F#mm	F#:min7	4A	_	.	.	.	42.416	.
.	.	8c#	Re-	.	.	.	.	.
.	.	8c#	-mem-	.	.	(A	.	.
=23	=23	=23	=23	=23	=23	=23	=23	=23
2DMM	D:maj7	4c#	-ber	1r	.	a)	43.387	newline
.	.	2r	.	.	.	.	.	.
4C#mm	C#:min7	.	.	.	.	.	44.354	.
4Bmm	B:min7/b7	8A	how	.	.	.	44.837	.
.	.	8B	the	.	.	.	.	.
=24	=24	=24	=24	=24	=24	=24	=24	=24
2C#Mm	C#:7	8c#	stars	1r	.	.	45.321	.
.	.	8e	stole	.	.	.	.	.
.	.	8f#	the	.	.	.	.	.
.	.	16c#	night	.	.	B	.	.
.	.	16B	_	.	.	.	.	.
2F#mm	F#:min7	4A	_	.	.	.	46.288	.
.	.	8A	a-	.	.	.	.	.
.	.	8B	-way.	.	.	.	.	.
=25	=25	=25	=25	=25	=25	=25	=25	=25
1AMm	A:11	[2A	_	1r	.	.	47.255	.
.	.	8A]	_	.	.	.	.	.
.	.	16F#	_	.	.	.	.	.
.	.	16E	_	.	.	.	.	.
.	.	16F#	_	.	.	.	.	.
.	.	16E	_	.	.	.	.	.
.	.	8C#	_	.	.	.	.	.
=26	=26	=26	=26	=26	=26	=26	=26	=26
1AMm	A:11	16C#	_	8r	.	.	49.189	.
.	.	16BB	_	.	.	.	.	.
.	.	8AA	_	8f#	[Ah	.	.	.
.	.	2r	.	8r	.	.	.	.
.	.	.	.	8a	ah	.	.	.
.	.	.	.	8r	.	.	.	.
.	.	.	.	8b	ah.]	.	.	.
.	.	4r	.	8a	_	.	.	.
.	.	.	.	8r	.	.	.	.
=27	=27	=27	=27	=27	=27	=27	=27	=27
*>Letter>C	*>Letter>C	*>Letter>C	*>Letter>C	*>Letter>C	*>Letter>C	*>Letter>C	*>Letter>C	*>Letter>C
*>Label>Chorus	*>Label>Chorus	*>Label>Chorus	*>Label>Chorus	*>Label>Chorus	*>Label>Chorus	*>Label>Chorus	*>Label>Chorus	*>Label>Chorus
2Bmm	B:min7	1r	.	4cc#	[Ba-	.	51.124	newline
.	.	.	.	8dd	-de-	.	.	.
.	.	.	.	4.cc#	-ya.]	.	.	.
2EMm	E:9	.	.	.	.	.	52.089	.
.	.	.	.	4r	.	.	.	.
=28	=28	=28	=28	=28	=28	=28	=28	=28
2C#mm	C#:min7	1r	.	8cc#	Say	.	53.054	.
.	.	.	.	8dd	do	.	.	.
.	.	.	.	8cc#	you	.	.	.
.	.	.	.	8b	re-	.	.	.
2F#mm	F#:min7	.	.	4a	-mem-	(A	54.019	.
.	.	.	.	8b	-ber	a)	.	.
.	.	.	.	8r	.	.	.	.
=29	=29	=29	=29	=29	=29	=29	=29	=29
2Bmm	B:min7	1r	.	4cc#	[Ba-	.	54.984	.
.	.	.	.	8dd	-de-	.	.	.
.	.	.	.	4.cc#	-ya]	.	.	.
2EMm	E:9	.	.	.	.	.	55.95	.
.	.	.	.	4r	.	.	.	.
=30	=30	=30	=30	=30	=30	=30	=30	=30
2AMM	A:maj9/3	1r	.	8cc#	danc-	.	56.915	.
.	.	.	.	8dd	-ing	.	.	.
.	.	.	.	8cc#	in	.	.	.
.	.	.	.	8b	Sep-	.	.	.
2F#mm	F#:min7	.	.	4a	-tem-	(A	57.88	.
.	.	.	.	8b	-ber?.	a)	.	.
.	.	.	.	8r	.	.	.	.
=31	=31	=31	=31	=31	=31	=31	=31	=31
2Bmm	B:min7	1r	.	4cc#	[Ba-	.	58.845	newline
.	.	.	.	8dd	-de-	.	.	.
.	.	.	.	4.cc#	-ya]	.	.	.
2EMm	E:9	.	.	.	.	.	59.811	.
.	.	.	.	4r	.	.	.	.
=32	=32	=32	=32	=32	=32	=32	=32	=32
2C#mm	C#:min7	1r	.	8cc#	ne-	.	60.777	.
.	.	.	.	8dd	-ver	.	.	.
.	.	.	.	8cc#	was	.	.	.
.	.	.	.	8b	a	.	.	.
2F#mm	F#:min7	.	.	4a	cloud-	.	61.743	.
.	.	.	.	8f#	-y	.	.	.
.	.	.	.	8b	day.	D	.	.
=33	=33	=33	=33	=33	=33	=33	=33	=33
1AM	A:sus4(b7,9)	1r	.	[1a	_	.	62.708	.
=34	=34	=34	=34	=34	=34	=34	=34	=34
1AM	A:sus4(b7,9)	1r	.	2a]	_	.	64.64	.
.	.	.	.	2r	.	.	.	.
=35	=35	=35	=35	=35	=35	=35	=35	=35
*>Letter>A	*>Letter>A	*>Letter>A	*>Letter>A	*>Letter>A	*>Letter>A	*>Letter>A	*>Letter>A	*>Letter>A
*>Label>Verse	*>Label>Verse	*>Label>Verse	*>Label>Verse	*>Label>Verse	*>Label>Verse	*>Label>Verse	*>Label>Verse	*>Label>Verse
2DMM	D:maj7	4A	[Ba-	4a	[Ba-	.	66.572	newline
.	.	8F#	-du-	8f#	-du-	.	.	.
.	.	8E	-a,	8e	-a,	.	.	.
4C#mm	C#:min7	4A	Ba-	4a	ba-	.	67.538	.
4AM	A:maj6	8F#	-du-	8f#	-du-	.	68.021	.
.	.	8E	-a,	8e	-a,	.	.	.
=36	=36	=36	=36	=36	=36	=36	=36	=36
2C#mm	C#:min7	4A	Ba-	8r	.	.	68.505	.
.	.	.	.	8a	ba-	.	.	.
.	.	8F#	-du-	8f#	-du-	.	.	.
.	.	8E	-a,	8e	-a,	.	.	.
2F#mm	F#:min11	4A	Ba-	4a	ba-	.	69.471	.
.	.	8F#	-du-	8f#	-du-	.	.	.
.	.	8E	-a,	8e	-a,	.	.	.
=37	=37	=37	=37	=37	=37	=37	=37	=37
2DMM	D:maj7	4A	Ba-	4a	Ba-	.	70.438	.
.	.	8F#	-du-	8f#	-du-	.	.	.
.	.	8E	-a,	8e	-a,	.	.	.
4C#mm	C#:min7	4A	Ba-	4a	ba-	.	71.404	.
4AM	A:maj6	8F#	-du-	8f#	-du-	.	71.888	.
.	.	8E	-a,	8e	-a,	.	.	.
=38	=38	=38	=38	=38	=38	=38	=38	=38
2C#mm	C#:min7	4A	Ba-	8r	.	.	72.371	.
.	.	.	.	8a	ba-	.	.	.
.	.	8F#	-du-	8f#	-du-	.	.	.
.	.	8E	-a,	8e	-a,	.	.	.
2F#mm	F#:min11	4A	Ba-	4a	ba-	.	73.337	.
.	.	8F#	-du-	8f#	-du-	.	.	.
.	.	8E	-a,	8e	-a,	.	.	.
=39	=39	=39	=39	=39	=39	=39	=39	=39
2Bmm	B:min7	4A	Ba-	4a	Ba-	.	74.304	newline
.	.	8F#	-du-	8f#	-du-	.	.	.
.	.	8E	-a,	8e	-a,	.	.	.
2EMm	E:9	4A	Ba-	4a	ba-	.	75.281	.
.	.	8F#	-du-	8f#	-du-	.	.	.
.	.	8E	-a,	8e	-a,	.	.	.
=40	=40	=40	=40	=40	=40	=40	=40	=40
2C#mm	C#:min7	4A	Ba-	8r	.	.	76.258	.
.	.	.	.	8b	Ba-	.	.	.
.	.	8F#	-du-	8f#	-du-	.	.	.
.	.	8E	-a,	4.a	-a.]	.	.	.
2F#mm	F#:min7	4A	ba-	.	.	.	77.235	.
.	.	8F#	-du	4r	.	.	.	.
.	.	16C#	way.]	.	.	D	.	.
.	.	16BB	_	.	.	.	.	.
=41	=41	=41	=41	=41	=41	=41	=41	=41
1AMm	A:11	2AA	_	1r	.	.	78.212	.
.	.	2r	.	.	.	.	.	.
=42	=42	=42	=42	=42	=42	=42	=42	=42
1AMm	A:11	2r	.	1r	.	.	80.167	.
.	.	8r	.	.	.	.	.	.
.	.	8c#	My	.	.	.	.	.
.	.	8B	thoughts	.	.	.	.	.
.	.	8A	are	.	.	.	.	.
=43	=43	=43	=43	=43	=43	=43	=43	=43
2DMM	D:maj7	8c#	with	1r	.	.	82.121	newline
.	.	8c#	you	.	.	.	.	.
.	.	4r	.	.	.	.	.	.
4C#mm	C#:min7	8r	.	.	.	.	83.086	.
.	.	8A	Hold-	.	.	.	.	.
4Bmm	B:min7/b7	8B	-ing	.	.	.	83.568	.
.	.	[8c#	hands	.	.	.	.	.
=44	=44	=44	=44	=44	=44	=44	=44	=44
2C#mm	C#:min7	8c#]	_	1r	.	.	84.051	.
.	.	8e	with	.	.	.	.	.
.	.	8f#	your	.	.	.	.	.
.	.	8B	heart	.	.	.	.	.
2F#mm	F#:min7	4A	_	.	.	.	85.015	.
.	.	8c#	to	.	.	.	.	.
.	.	[8d	see	.	.	.	.	.
=45	=45	=45	=45	=45	=45	=45	=45	=45
2DMM	D:maj7	8d]	_	1r	.	.	85.98	.
.	.	8c#	you.	.	.	.	.	.
.	.	2r	.	.	.	.	.	.
4C#mm	C#:min7	.	.	.	.	.	86.945	.
4Bmm	B:min7/b7	8A	On-	.	.	.	87.428	.
.	.	8B	-ly	.	.	.	.	.
=46	=46	=46	=46	=46	=46	=46	=46	=46
2C#mm	C#:min7	8c#	blue	1r	.	.	87.91	.
.	.	8e	talk	.	.	.	.	.
.	.	8f#	and	.	.	.	.	.
.	.	16c#	love.	.	.	.	.	.
.	.	16B	_	.	.	.	.	.
2F#mm	F#:min7	4A	_	.	.	.	88.875	.
.	.	8c#	Re-	.	.	.	.	.
.	.	8c#	-mem-	.	.	(A	.	.
=47	=47	=47	=47	=47	=47	=47	=47	=47
2DMM	D:maj7	4c#	-ber	1r	.	a)	89.84	newline
.	.	2r	.	.	.	.	.	.
4C#mm	C#:min7	.	.	.	.	.	90.808	.
4Bmm	B:min7/b7	8A	how	.	.	.	91.292	.
.	.	8B	we	.	.	.	.	.
=48	=48	=48	=48	=48	=48	=48	=48	=48
2C#Mm	C#:7	8c#	knew	1r	.	.	91.776	.
.	.	8e	love	.	.	.	.	.
.	.	8f#	was	.	.	.	.	.
.	.	16B	here	.	.	.	.	.
.	.	16c#	_	.	.	.	.	.
2F#mm	F#:min7	4B	_	.	.	.	92.744	.
.	.	8A	to	.	.	.	.	.
.	.	8B	stay.	.	.	D	.	.
=49	=49	=49	=49	=49	=49	=49	=49	=49
1AMm	A:11	[1A	_	1r	.	.	93.711	.
=50	=50	=50	=50	=50	=50	=50	=50	=50
1AMm	A:11	2A]	_	1r	.	.	95.647	.
.	.	4r	.	.	.	.	.	.
.	.	8c#	Now	.	.	.	.	.
.	.	8e	De-	.	.	.	.	.
=51	=51	=51	=51	=51	=51	=51	=51	=51
2DMM	D:maj7	8e	-cem-	1r	.	(A	97.583	newline
.	.	4.e	-ber	.	.	a)	.	.
4C#mm	C#:min7	8r	.	.	.	.	98.548	.
.	.	8c#	found	.	.	.	.	.
4Bmm	B:min7/b7	8e	the	.	.	.	99.031	.
.	.	8g	love	.	.	.	.	.
=52	=52	=52	=52	=52	=52	=52	=52	=52
2C#mm	C#:min7	4f#	_	1r	.	.	99.513	.
.	.	8e	we	.	.	.	.	.
.	.	4e	shared	.	.	.	.	.
2F#mm	F#:min7	.	.	.	.	.	100.478	.
.	.	8e	in	.	.	.	.	.
.	.	8f#	Sep-	.	.	.	.	.
.	.	8a	-tem-	.	.	(A	.	.
=53	=53	=53	=53	=53	=53	=53	=53	=53
2DMM	D:maj7	4.f#	-ber.	1r	.	a)	101.444	.
.	.	4r	.	.	.	.	.	.
4C#mm	C#:min7	.	.	.	.	.	102.409	.
.	.	8c#	On-	.	.	.	.	.
4Bmm	B:min7/b7	8e	-ly	.	.	.	102.891	.
.	.	8g	blue	.	.	.	.	.
=54	=54	=54	=54	=54	=54	=54	=54	=54
2C#mm	C#:min7	8f#	_	1r	.	.	103.374	.
.	.	8e	talk	.	.	.	.	.
.	.	8r	.	.	.	.	.	.
.	.	4.f#	love.	.	.	.	.	.
2F#mm	F#:min7	.	.	.	.	.	104.339	.
.	.	8c	Re-	.	.	.	.	.
.	.	8c	-mem-	.	.	(A	.	.
=55	=55	=55	=55	=55	=55	=55	=55	=55
2DMM	D:maj7	8B	-ber	1r	.	a)	105.304	newline
.	.	8A	_	.	.	.	.	.
.	.	2r	.	.	.	.	.	.
4C#mm	C#:min7	.	.	.	.	.	106.271	.
4Bmm	B:min7/b7	4r	.	.	.	.	106.754	.
=56	=56	=56	=56	=56	=56	=56	=56	=56
2C#Mm	C#:7	8c#	True	1r	.	.	107.237	.
.	.	8e	love	.	.	.	.	.
.	.	8f#	we	.	.	.	.	.
.	.	16B	share	.	.	.	.	.
.	.	16c#	_	.	.	.	.	.
2F#mm	F#:min7	4B	_	.	.	.	108.203	.
.	.	8A	to	.	.	.	.	.
.	.	8B	day	.	.	D	.	.
=57	=57	=57	=57	=57	=57	=57	=57	=57
1AMm	A:11	2.A	_	1r	.	.	109.17	.
.	.	[4A	_	.	.	.	.	.
=58	=58	=58	=58	=58	=58	=58	=58	=58
1AMm	A:11	2A]	_	8r	.	.	111.102	.
.	.	.	.	8f#	[Ah	.	.	.
.	.	.	.	8r	.	.	.	.
.	.	.	.	8a	ah	.	.	.
.	.	4a	_	8r	.	.	.	.
.	.	.	.	8b	ah.]	.	.	.
.	.	8r	.	8a	_	.	.	.
.	.	[8a	yes	8r	.	.	.	.
=59	=59	=59	=59	=59	=59	=59	=59	=59
*>Letter>C	*>Letter>C	*>Letter>C	*>Letter>C	*>Letter>C	*>Letter>C	*>Letter>C	*>Letter>C	*>Letter>C
*>Label>Chorus	*>Label>Chorus	*>Label>Chorus	*>Label>Chorus	*>Label>Chorus	*>Label>Chorus	*>Label>Chorus	*>Label>Chorus	*>Label>Chorus
2Bmm	B:min7	4a]	_	4cc#	[Ba-	.	113.035	newline
.	.	8f#	_	8dd	-de-	.	.	.
.	.	4.a	yes.	4.cc#	-ya.]	.	.	.
2EMm	E:9	.	.	.	.	.	114.003	.
.	.	4r	.	4r	.	.	.	.
=60	=60	=60	=60	=60	=60	=60	=60	=60
2C#mm	C#:min7	1r	.	8cc#	Say	.	114.972	.
.	.	.	.	8dd	do	.	.	.
.	.	.	.	8cc#	you	.	.	.
.	.	.	.	8b	re-	.	.	.
2F#mm	F#:min7	.	.	4a	-mem-	.	115.941	.
.	.	.	.	8b	-ber	.	.	.
.	.	.	.	8r	.	.	.	.
=61	=61	=61	=61	=61	=61	=61	=61	=61
2Bmm	B:min7	2r	.	4cc#	[Ba-	.	116.909	.
.	.	.	.	8dd	-de-	.	.	.
.	.	.	.	4.cc#	-ya]	.	.	.
2EMm	E:9	8e	[Ooh-	.	.	.	117.878	.
.	.	[4.f#	-oh.]	.	.	.	.	.
.	.	.	.	4r	.	.	.	.
=62	=62	=62	=62	=62	=62	=62	=62	=62
2AMM	A:maj9/3	2f#]	_	8cc#	danc-	.	118.847	.
.	.	.	.	8dd	-ing	.	.	.
.	.	.	.	8cc#	in	.	.	.
.	.	.	.	8b	Sep-	.	.	.
2F#mm	F#:min7	8f#	_	4a	-tem-	.	119.815	.
.	.	8e	_	.	.	.	.	.
.	.	8c#	_	8b	-ber?.	.	.	.
.	.	[8e	_	8r	.	.	.	.
=63	=63	=63	=63	=63	=63	=63	=63	=63
2Bmm	B:min7	4e]	_	4cc#	[Ba-	.	120.784	newline
.	.	4r	.	8dd	-de-	.	.	.
.	.	.	.	4.cc#	-ya]	.	.	.
2EMm	E:9	8r	.	.	.	.	121.753	.
.	.	8f#	[Eh-	.	.	.	.	.
.	.	16f#	-hey.]	4r	.	.	.	.
.	.	16e	_	.	.	.	.	.
.	.	8f#	_	.	.	.	.	.
=64	=64	=64	=64	=64	=64	=64	=64	=64
2C#mm	C#:min7	4e	_	8cc#	ne-	.	122.722	.
.	.	.	.	8dd	-ver	.	.	.
.	.	2r	.	8cc#	was	.	.	.
.	.	.	.	8b	a	.	.	.
2F#mm	F#:min7	.	.	4a	cloud-	.	123.691	.
.	.	4r	.	8f#	-y	.	.	.
.	.	.	.	8b	day.	D	.	.
=65	=65	=65	=65	=65	=65	=65	=65	=65
1AMm	A:11	1r	.	[1a	_	.	124.66	.
=66	=66	=66	=66	=66	=66	=66	=66	=66
*	*	*clefG2	*	*	*	*	*	*
1AMm	A:11	2r	.	2a]	_	.	126.598	.
.	.	8r	.	8r	.	.	.	.
.	.	8f#	There	8f#	There	.	.	.
.	.	8a	was	8a	was	.	.	.
.	.	8b	a	8b	a	.	.	.
=67	=67	=67	=67	=67	=67	=67	=67	=67
2Bmm	B:min7	4cc#	Ba-	4cc#	Ba-	.	128.535	newline
.	.	8dd	-de-	8dd	-de-	.	.	.
.	.	4.cc#	-ya	4.cc#	-ya.	.	.	.
2EMm	E:9	.	.	.	.	.	129.507	.
.	.	8b	de-	4r	.	.	.	.
.	.	[8a	-ya	.	.	.	.	.
=68	=68	=68	=68	=68	=68	=68	=68	=68
2C#mm	C#:min7	4a]	_	8cc#	Say	.	130.479	.
.	.	.	.	8dd	do	.	.	.
.	.	8b	de-	8cc#	you	.	.	.
.	.	4.f#	-ya.	8b	re-	(A	.	.
2F#mm	F#:min7	.	.	4a	-mem-	.	131.45	.
.	.	4r	.	8b	-ber	a)	.	.
.	.	.	.	8r	.	.	.	.
=69	=69	=69	=69	=69	=69	=69	=69	=69
2Bmm	B:min7	4cc#	[Ba-	4cc#	[Ba-	.	132.422	.
.	.	8dd	-de-	8dd	-de-	.	.	.
.	.	4.cc#	-ya	4.cc#	-ya]	.	.	.
2EMm	E:9	.	.	.	.	.	133.394	.
.	.	8b	de-	4r	.	.	.	.
.	.	[8a	-ya	.	.	.	.	.
=70	=70	=70	=70	=70	=70	=70	=70	=70
2AMM	A:maj9/3	4a]	_	8cc#	danc-	.	134.365	.
.	.	.	.	8dd	-ing	.	.	.
.	.	8b	de-	8cc#	in	.	.	.
.	.	4.f#	-ya.]	8b	Sep-	.	.	.
2F#mm	F#:min7	.	.	4a	-tem-	(A	135.337	.
.	.	4r	.	8b	-ber?.	a)	.	.
.	.	.	.	8r	.	.	.	.
=71	=71	=71	=71	=71	=71	=71	=71	=71
2Bmm	B:min7	4cc#	[Ba-	4cc#	[Ba-	.	136.309	newline
.	.	8dd	-de-	8dd	-de-	.	.	.
.	.	4.cc#	-ya	4.cc#	-ya]	.	.	.
2EMm	E:9	.	.	.	.	.	.	.
.	.	8b	de-	4r	.	.	.	.
.	.	[8a	-ya	.	.	.	.	.
=72	=72	=72	=72	=72	=72	=72	=72	=72
2C#mm	C#:min7	4a]	_	8cc#	Gol-	.	.	.
.	.	.	.	8dd	-den	.	.	.
.	.	8b	de-	8cc#	dreams	.	.	.
.	.	4f#	-ya.	8b	were	.	.	.
2F#mm	F#:min7	.	.	4a	shi-	.	.	.
.	.	8r	.	.	.	.	.	.
.	.	8b	de-	8f#	-ny	.	.	.
.	.	[8ee	-ya.]	8b	days.	D	.	.
=73	=73	=73	=73	=73	=73	=73	=73	=73
1AMm	A:11	1ee_	_	[1a	_	.	.	.
=74	=74	=74	=74	=74	=74	=74	=74	=74
1AMm	A:11	2ee]	_	2a]	_	.	.	.
.	.	2r	.	2r	.	.	.	.
=75	=75	=75	=75	=75	=75	=75	=75	=75
*>Letter>D	*>Letter>D	*>Letter>D	*>Letter>D	*>Letter>D	*>Letter>D	*>Letter>D	*>Letter>D	*>Letter>D
*>Label>Bridge	*>Label>Bridge	*>Label>Bridge	*>Label>Bridge	*>Label>Bridge	*>Label>Bridge	*>Label>Bridge	*>Label>Bridge	*>Label>Bridge
2Bmm	B:min7	8r	.	1r	.	.	.	newline
.	.	8e	The	.	.	.	.	.
.	.	8r	.	.	.	.	.	.
.	.	8e	bell	.	.	.	.	.
2EMm	E:9	8r	.	.	.	.	.	.
.	.	8e	was	.	.	.	.	.
.	.	8r	.	.	.	.	.	.
.	.	8g	ring-	.	.	(C	.	.
=76	=76	=76	=76	=76	=76	=76	=76	=76
2C#mm	C#:min7	4f#	-ing.	1r	.	c)	.	.
.	.	8e	_	.	.	.	.	.
.	.	4r	.	.	.	.	.	.
2F#mm	F#:min7	.	.	.	.	.	.	.
.	.	8e	a-	.	.	.	.	.
.	.	8e	-ha.	.	.	.	.	.
.	.	8f#	_	.	.	.	.	.
=77	=77	=77	=77	=77	=77	=77	=77	=77
2Bmm	B:min7	8r	.	1r	.	.	.	.
.	.	8e	Our	.	.	.	.	.
.	.	8r	.	.	.	.	.	.
.	.	[8a	souls	.	.	.	.	.
2EMm	E:9	4.a]	_	.	.	.	.	.
.	.	8f#	were	.	.	.	.	.
=78	=78	=78	=78	=78	=78	=78	=78	=78
2AMM	A:maj9/3	8g	sing-	1r	.	(C	.	.
.	.	16f#	-ing.	.	.	c)	.	.
.	.	16g	_	.	.	.	.	.
.	.	[4f#	_	.	.	.	.	.
2F#mm	F#:min7	8f#]	_	.	.	.	.	.
.	.	4e	_	.	.	.	.	.
.	.	8r	.	.	.	.	.	.
=79	=79	=79	=79	=79	=79	=79	=79	=79
2Bmm	B:min7	8r	.	1r	.	.	.	newline
.	.	8c#	Do	.	.	.	.	.
.	.	8e	you	.	.	.	.	.
.	.	8c#	re-	.	.	.	.	.
2EMm	E:9	8e	-mem-	.	.	(A	.	.
.	.	4.f#	-ber?.	.	.	a)	.	.
=80	=80	=80	=80	=80	=80	=80	=80	=80
2C#mm	C#:min7	8c#	ne-	1r	.	.	.	.
.	.	8e	-ver	.	.	.	.	.
.	.	8f#	a	.	.	.	.	.
.	.	16B	cloud-	.	.	.	.	.
.	.	16c#	_	.	.	.	.	.
2F#mm	F#:min7	4B	_	.	.	.	.	.
.	.	8A	-y	.	.	.	.	.
.	.	16B	day	.	.	D	.	.
.	.	[16F#	_	.	.	.	.	.
=81	=81	=81	=81	=81	=81	=81	=81	=81
1AMm	A:11	8F#]	_	1r	.	.	.	.
.	.	4r	.	.	.	.	.	.
.	.	[8A	yaow.	.	.	.	.	.
.	.	4A]	_	.	.	.	.	.
.	.	4r	.	.	.	.	.	.
=82	=82	=82	=82	=82	=82	=82	=82	=82
1AMm	A:11	2r	.	2r	.	.	.	.
.	.	8r	.	8r	.	.	.	.
.	.	8f#	And	8f#	And	.	.	.
.	.	8a	we	8a	we	.	.	.
.	.	8b	said	8b	said	.	.	.
=83	=83	=83	=83	=83	=83	=83	=83	=83
*>Letter>C	*>Letter>C	*>Letter>C	*>Letter>C	*>Letter>C	*>Letter>C	*>Letter>C	*>Letter>C	*>Letter>C
*>Label>Chorus	*>Label>Chorus	*>Label>Chorus	*>Label>Chorus	*>Label>Chorus	*>Label>Chorus	*>Label>Chorus	*>Label>Chorus	*>Label>Chorus
2Bmm	B:min7	4cc#	Ba-	4cc#	Ba-	.	.	newline
.	.	8dd	-de-	8dd	-de-	.	.	.
.	.	4.cc#	-ya	4.cc#	-ya.	.	.	.
2EMm	E:9	.	.	.	.	.	.	.
.	.	8b	de-	4r	.	.	.	.
.	.	[8a	-ya	.	.	.	.	.
=84	=84	=84	=84	=84	=84	=84	=84	=84
2C#mm	C#:min7	4a]	_	8cc#	Say	.	.	.
.	.	.	.	8dd	do	.	.	.
.	.	8b	de-	8cc#	you	.	.	.
.	.	4.f#	-ya.	8b	re-	.	.	.
2F#mm	F#:min7	.	.	4a	-mem-	(A	.	.
.	.	4r	.	8b	-ber	a)	.	.
.	.	.	.	8r	.	.	.	.
=85	=85	=85	=85	=85	=85	=85	=85	=85
2Bmm	B:min7	4cc#	[Ba-	4cc#	[Ba-	.	.	.
.	.	8dd	-de-	8dd	-de-	.	.	.
.	.	4.cc#	-ya	4.cc#	-ya]	.	.	.
2EMm	E:9	.	.	.	.	.	.	.
.	.	8b	de-	4r	.	.	.	.
.	.	[8a	-ya	.	.	.	.	.
=86	=86	=86	=86	=86	=86	=86	=86	=86
2AMM	A:maj9/3	4a]	_	8cc#	danc-	.	.	.
.	.	.	.	8dd	-ing	.	.	.
.	.	8b	de-	8cc#	in	.	.	.
.	.	4.f#	-ya]	8b	Sep-	.	.	.
2F#mm	F#:min7	.	.	4a	-tem-	(A	.	.
.	.	4r	.	8b	-ber?.	a)	.	.
.	.	.	.	8r	.	.	.	.
=87	=87	=87	=87	=87	=87	=87	=87	=87
2Bmm	B:min7	4cc#	[Ba-	4cc#	[Ba-	.	.	newline
.	.	8dd	-de-	8dd	-de-	.	.	.
.	.	4.cc#	-ya	4.cc#	-ya]	.	.	.
2EMm	E:9	.	.	.	.	.	.	.
.	.	8b	de-	4r	.	.	.	.
.	.	[8a	-ya	.	.	.	.	.
=88	=88	=88	=88	=88	=88	=88	=88	=88
2C#mm	C#:min7	4a]	_	8cc#	ne-	.	.	.
.	.	.	.	8dd	-ver	.	.	.
.	.	8b	de-	8cc#	was	.	.	.
.	.	4f#	-ya.	8b	a	.	.	.
2F#mm	F#:min7	.	.	4a	cloud-	.	.	.
.	.	8r	.	.	.	.	.	.
.	.	8b	de-	8f#	-y	.	.	.
.	.	[8ee	-ya]	8b	day.	D	.	.
=89	=89	=89	=89	=89	=89	=89	=89	=89
1AMm	A:11	1ee_	_	[1a	_	.	.	.
=90	=90	=90	=90	=90	=90	=90	=90	=90
1AMm	A:11	2ee]	_	2a]	_	.	.	.
.	.	8r	.	8r	.	.	.	.
.	.	8f#	And	8f#	And	.	.	.
.	.	8a	we	8a	we	.	.	.
.	.	8b	said	8b	said	.	.	.
=91	=91	=91	=91	=91	=91	=91	=91	=91
2Bmm	B:min7	4cc#	Ba-	4cc#	Ba-	.	.	newline
.	.	8dd	-de-	8dd	-de-	.	.	.
.	.	4.cc#	-ya	4.cc#	-ya.	.	.	.
2EMm	E:9	.	.	.	.	.	.	.
.	.	8b	de-	4r	.	.	.	.
.	.	[8a	-ya	.	.	.	.	.
=92	=92	=92	=92	=92	=92	=92	=92	=92
2C#mm	C#:min7	4a]	_	8cc#	Say	.	.	.
.	.	.	.	8dd	do	.	.	.
.	.	8b	de-	8cc#	you	.	.	.
.	.	4.f#	-ya.	8b	re-	.	.	.
2F#mm	F#:min7	.	.	4a	-mem-	(A	.	.
.	.	4r	.	8b	-ber	a)	.	.
.	.	.	.	8r	.	.	.	.
=93	=93	=93	=93	=93	=93	=93	=93	=93
2Bmm	B:min7	4cc#	[Ba-	4cc#	[Ba-	.	.	.
.	.	8dd	-de-	8dd	-de-	.	.	.
.	.	4.cc#	-ya	4.cc#	-ya]	.	.	.
2EMm	E:9	.	.	.	.	.	.	.
.	.	8b	de-	4r	.	.	.	.
.	.	[8a	-ya	.	.	.	.	.
=94	=94	=94	=94	=94	=94	=94	=94	=94
2AMM	A:maj9/3	4a]	_	8cc#	danc-	.	.	.
.	.	.	.	8dd	-ing	.	.	.
.	.	8b	de-	8cc#	in	.	.	.
.	.	4.f#	-ya.]	8b	Sep-	.	.	.
2F#mm	F#:min7	.	.	4a	-tem-	(A	.	.
.	.	4r	.	8b	-ber?.	a)	.	.
.	.	.	.	8r	.	.	.	.
=95	=95	=95	=95	=95	=95	=95	=95	=95
2Bmm	B:min7	4cc#	[Ba-	4cc#	Ba-	.	.	newline
.	.	8dd	-de-	8dd	-de-	.	.	.
.	.	4.cc#	-ya	4.cc#	-ya	.	.	.
2EMm	E:9	.	.	.	.	.	.	.
.	.	8b	de-	4r	.	.	.	.
.	.	[8a	-ya	.	.	.	.	.
=96	=96	=96	=96	=96	=96	=96	=96	=96
2C#mm	C#:min7	4a]	_	8cc#	gol-	.	.	.
.	.	.	.	8dd	-den	.	.	.
.	.	8b	de-	8cc#	dreams	.	.	.
.	.	4f#	-ya	8b	were	.	.	.
2F#mm	F#:min7	.	.	4a	shi-	.	.	.
.	.	8r	.	.	.	.	.	.
.	.	8b	de-	8f#	-ny	.	.	.
.	.	[8ee	-ya.]	8b	days.	D	.	.
=97	=97	=97	=97	=97	=97	=97	=97	=97
1AMm	A:11	1ee_	_	[1a	_	.	.	.
=98	=98	=98	=98	=98	=98	=98	=98	=98
1AMm	A:11	2ee]	_	2a]	_	.	.	.
.	.	2r	.	2r	.	.	.	.
=99	=99	=99	=99	=99	=99	=99	=99	=99
2Bmm	B:min7	4cc#	[Ba-	4cc#	[Ba-	.	.	newline
.	.	8dd	-de-	8dd	-de-	.	.	.
.	.	4.cc#	-ya	4.cc#	-ya	.	.	.
2EMm	E:9	.	.	.	.	.	.	.
.	.	8b	de-	8b	de-	.	.	.
.	.	[8a	-ya	[8a	-ya	.	.	.
=100	=100	=100	=100	=100	=100	=100	=100	=100
2C#mm	C#:min7	4a]	_	4a]	_	.	.	.
.	.	8b	de-	8b	de-	.	.	.
.	.	4.f#	-ya.]	4.f#	-ya.]	.	.	.
2F#mm	F#:min7	.	.	.	.	.	.	.
.	.	4r	.	4r	.	.	.	.
=101	=101	=101	=101	=101	=101	=101	=101	=101
2Bmm	B:min7	4cc#	[Ba-	4cc#	[Ba-	.	.	.
.	.	8dd	-de-	8dd	-de-	.	.	.
.	.	4.cc#	-ya	4.cc#	-ya	.	.	.
2EMm	E:9	.	.	.	.	.	.	.
.	.	8b	de-	8b	de-	.	.	.
.	.	[8a	-ya	[8a	-ya	.	.	.
=102	=102	=102	=102	=102	=102	=102	=102	=102
2AMM	A:maj9/3	4a]	_	4a]	_	.	.	.
.	.	8b	de-	8b	de-	.	.	.
.	.	4.f#	-ya.]	4.f#	-ya.]	.	.	.
2F#mm	F#:min7	.	.	.	.	.	.	.
.	.	4r	.	4r	.	.	.	.
=103	=103	=103	=103	=103	=103	=103	=103	=103
2Bmm	B:min7	4cc#	[Ba-	4cc#	[Ba-	.	.	newline
.	.	8dd	-de-	8dd	-de-	.	.	.
.	.	4.cc#	-ya	4.cc#	-ya	.	.	.
2EMm	E:9	.	.	.	.	.	.	.
.	.	8b	de-	8b	de-	.	.	.
.	.	[8a	-ya	[8a	-ya	.	.	.
=104	=104	=104	=104	=104	=104	=104	=104	=104
2C#mm	C#:min7	4a]	_	4a]	_	.	.	.
.	.	8b	de-	8b	de-	.	.	.
.	.	4f#	-ya	4f#	-ya	.	.	.
2F#mm	F#:min7	.	.	.	.	.	.	.
.	.	8r	.	8r	.	.	.	.
.	.	8b	de-	8b	de-	.	.	.
.	.	[8ee	-ya.]	[8a	-ya.]	.	.	.
=105	=105	=105	=105	=105	=105	=105	=105	=105
1AMm	A:11	1ee_	_	1a_	_	.	.	.
=106	=106	=106	=106	=106	=106	=106	=106	=106
1AMm	A:11	2ee]	_	2a]	_	.	.	.
.	.	2r	.	2r	.	.	.	.
=107	=107	=107	=107	=107	=107	=107	=107	=107
2Bmm	B:min7	4cc#	[Ba-	4cc#	[Ba-	.	.	newline
.	.	8dd	-de-	8dd	-de-	.	.	.
.	.	4.cc#	-ya	4.cc#	-ya	.	.	.
2EMm	E:9	.	.	.	.	.	.	.
.	.	8b	de-	8b	de-	.	.	.
.	.	[8a	-ya	[8a	-ya	.	.	.
=108	=108	=108	=108	=108	=108	=108	=108	=108
2C#mm	C#:min7	4a]	_	4a]	_	.	.	.
.	.	8b	de-	8b	de-	.	.	.
.	.	4.f#	-ya]	4.f#	-ya]	.	.	.
2F#mm	F#:min7	.	.	.	.	.	.	.
.	.	4r	.	4r	.	.	.	.
=109	=109	=109	=109	=109	=109	=109	=109	=109
2Bmm	B:min7	4cc#	[Ba-	4cc#	[Ba-	.	.	.
.	.	8dd	-de-	8dd	-de-	.	.	.
.	.	4.cc#	-ya	4.cc#	-ya	.	.	.
2EMm	E:9	.	.	.	.	.	.	.
.	.	8b	de-	8b	de-	.	.	.
.	.	[8a	-ya	[8a	-ya	.	.	.
=110	=110	=110	=110	=110	=110	=110	=110	=110
2AMM	A:maj9/3	4a]	_	4a]	_	.	.	.
.	.	8b	de-	8b	de-	.	.	.
.	.	4.f#	-ya]	4.f#	-ya]	.	.	.
2F#mm	F#:min7	.	.	.	.	.	.	.
.	.	4r	.	4r	.	.	.	.
=111	=111	=111	=111	=111	=111	=111	=111	=111
2Bmm	B:min7	4cc#	[Ba-	4cc#	[Ba-	.	.	newline
.	.	8dd	-de-	8dd	-de-	.	.	.
.	.	4.cc#	-ya	4.cc#	-ya	.	.	.
2EMm	E:9	.	.	.	.	.	.	.
.	.	8b	de-	8b	de-	.	.	.
.	.	[8a	-ya	[8a	-ya	.	.	.
=112	=112	=112	=112	=112	=112	=112	=112	=112
2C#mm	C#:min7	4a]	_	4a]	_	.	.	.
.	.	8b	de-	8b	de-	.	.	.
.	.	4f#	-ya	4f#	-ya	.	.	.
2F#mm	F#:min7	.	.	.	.	.	.	.
.	.	8r	.	8r	.	.	.	.
.	.	8b	de-	8b	de-	.	.	.
.	.	[8ee	-ya.]	[8a	-ya.]	.	.	.
=113	=113	=113	=113	=113	=113	=113	=113	=113
1AMm	A:11	1ee_	_	1a_	_	.	.	.
=114	=114	=114	=114	=114	=114	=114	=114	=114
1AMm	A:11	2ee]	_	2a]	_	.	.	.
.	.	2r	.	2r	.	.	.	.
*-	*-	*-	*-	*-	*-	*-	*-	*-
!!!BillboardChartDate: 1979/01/06
!!!BillboardPeak: 8
!!!BillboardWeeksOnChart: 17
!!!COC: Earth, Wind & Fire
!!!EMD: The song is the key of A, not D, as the harmonic transcription originally had. (I also believe the A chord at the end of each phrase is not a dominant chord).
!!!EMD: This harmonic transcription was way too short. I added the material to match the correct recording (just repeating the same chord progression).
!!!ENC: Nathaniel Condit-Schultz
!!!EST: Awating manual error checking and editing.
!!!OTL: September
!!!RDF**chordsym: original McGill chord annotation + (implied pitch class set, with bass pitch in first position)
!!!RDF**harmony: **recip + pitch class of root + harmonic quality
!!!RDF**leadinstrument: original McGill primary instrumentation annotation
!!!RDF**phrase: newline = linebreak in original McGill transcription
!!!RDF**timestamp: McGill audio timestamp in seconds
!!!RDT: 2017/01/12/
!!!SampleActualRank: 15
!!!SampleID#: 0804
!!!SampleTargetRank: 16
!!!MBID: 661d35c3-6ade-4367-af96-6c2898149906